svgs/solid/table.svg

<svg xmlns="http://www.w3.org/2000/svg" viewBox="0 0 512 512"><!-- Font Awesome Pro 6.0.0-alpha2 by @fontawesome - https://fontawesome.com License - https://fontawesome.com/license (Commercial License) --><path d="M448 32H64C28.654 32 0 60.654 0 96V416C0 451.346 28.654 480 64 480H448C483.346 480 512 451.346 512 416V96C512 60.654 483.346 32 448 32ZM224 416H64V320H224V416ZM224 256H64V160H224V256ZM448 416H288V320H448V416ZM448 256H288V160H448V256Z"/></svg>

<svg xmlns="http://www.w3.org/2000/svg" viewBox="0 0 512 512"><!--! Font Awesome Pro 6.0.0-alpha3 by @fontawesome - https://fontawesome.com License - https://fontawesome.com/license (Commercial License) --><path d="M448 32H64.05C28.7 32 .0492 60.65 .0492 96v320c0 35.35 28.65 64 64 64h383.1c35.35 0 64-28.65 64-64V96C512 60.65 483.4 32 448 32zM224 416H64v-96h160V416zM224 256H64V160h160V256zM448 416h-160v-96h160V416zM448 256h-160V160h160V256z"/></svg>
